build/img/bg-dark.svg

<svg version="1.1" id="Layer_1" xmlns="http://www.w3.org/2000/svg" xmlns:xlink="http://www.w3.org/1999/xlink" x="0" y="0" viewBox="0 0 1920 2302.9" xml:space="preserve"><style>.st0{fill:none}</style><pattern y="2302.9" width="15" height="15" patternUnits="userSpaceOnUse" id="SVGID_1_" viewBox="0.9 -15.9 15 15" overflow="visible"><path class="st0" d="M.9-15.9h15v15H.9z"/><path class="st0" d="M.9-15.9h15v15H.9z"/><path class="st0" d="M.9-15.9h15v15H.9z"/><path class="st0" d="M.9-15.9h15v15H.9z"/><path class="st0" d="M.9-15.9h15v15H.9z"/><path class="st0" d="M.9-15.9h15v15H.9z"/><path d="M15.9-16.9c.5 0 .9.4.9.9s-.4.9-.9.9-.9-.4-.9-.9.4-.9.9-.9zM8.4-9.6c.5 0 .9.4.9.9s-.4.9-.9.9-.9-.3-.9-.9c0-.5.4-.9.9-.9zM.9-16.9c.5 0 .9.4.9.9s-.4.9-.9.9c-.5.1-.9-.3-.9-.8 0-.6.4-1 .9-1zm15 15c.5 0 .9.4.9.9s-.4.9-.9.9-.9-.3-.9-.8.4-1 .9-1zm-15 0c.5 0 .9.4.9.9.1.6-.3 1-.9 1C.4 0 0-.4 0-.9c0-.6.4-1 .9-1z" fill="#39aacd"/></pattern><pattern id="SVGID_2_" xlink:href="#SVGID_1_" patternTransform="matrix(1 0 0 -1 -32.55 -51423.973)"/><path fill="url(#SVGID_2_)" d="M0 0h1920v2302.9H0z"/></svg>

<?xml version="1.0" encoding="utf-8"?>
<!-- Generator: Adobe Illustrator 23.0.2, SVG Export Plug-In . SVG Version: 6.00 Build 0)  -->
<svg version="1.1" id="Layer_1" xmlns="http://www.w3.org/2000/svg" xmlns:xlink="http://www.w3.org/1999/xlink" x="0px" y="0px"
	 viewBox="0 0 1920 2302.9" style="enable-background:new 0 0 1920 2302.9;" xml:space="preserve">
<style type="text/css">
	.st0{fill:none;}
	.st1{fill:#39AACD;}
	.st2{fill:url(#SVGID_2_);}
</style>
<pattern  y="2302.9" width="15" height="15" patternUnits="userSpaceOnUse" id="SVGID_1_" viewBox="0.9 -15.9 15 15" style="overflow:visible;">
	<g>
		<rect x="0.9" y="-15.9" class="st0" width="15" height="15"/>
		<g>
			<rect x="0.9" y="-15.9" class="st0" width="15" height="15"/>
			<g>
				<rect x="0.9" y="-15.9" class="st0" width="15" height="15"/>
				<g>
					<rect x="0.9" y="-15.9" class="st0" width="15" height="15"/>
					<g>
						<rect x="0.9" y="-15.9" class="st0" width="15" height="15"/>
						<g>
							<rect x="0.9" y="-15.9" class="st0" width="15" height="15"/>
							<g>
								<path class="st1" d="M15.9-16.9c0.5,0,0.9,0.4,0.9,0.9s-0.4,0.9-0.9,0.9S15-15.5,15-16S15.4-16.9,15.9-16.9z"/>
							</g>
							<g>
								<path class="st1" d="M8.4-9.6c0.5,0,0.9,0.4,0.9,0.9S8.9-7.8,8.4-7.8S7.5-8.1,7.5-8.7C7.5-9.2,7.9-9.6,8.4-9.6z"/>
								<path class="st1" d="M0.9-16.9c0.5,0,0.9,0.4,0.9,0.9s-0.4,0.9-0.9,0.9C0.4-15,0-15.4,0-15.9C0-16.5,0.4-16.9,0.9-16.9z"/>
							</g>
							<g>
								<path class="st1" d="M15.9-1.9c0.5,0,0.9,0.4,0.9,0.9s-0.4,0.9-0.9,0.9S15-0.4,15-0.9S15.4-1.9,15.9-1.9z"/>
							</g>
							<g>
								<path class="st1" d="M0.9-1.9c0.5,0,0.9,0.4,0.9,0.9c0.1,0.6-0.3,1-0.9,1C0.4,0,0-0.4,0-0.9C0-1.5,0.4-1.9,0.9-1.9z"/>
							</g>
						</g>
					</g>
				</g>
			</g>
		</g>
	</g>
</pattern>
<pattern  id="SVGID_2_" xlink:href="#SVGID_1_" patternTransform="matrix(1 0 0 -1 -32.55 -51423.9727)">
</pattern>
<rect y="0" class="st2" width="1920" height="2302.9"/>
</svg>
